fs/toolbox_20_filled.svg

<svg viewBox="0 0 20 20" fill="none" xmlns="http://www.w3.org/2000/svg" height="1em" width="1em">
  <path d="M6 4.5V6H4C2.89543 6 2 6.89543 2 8V10H6V9.50073C6 9.22459 6.22386 9.00073 6.5 9.00073C6.77614 9.00073 7 9.22459 7 9.50073V10H13L13 9.50074C13 9.22459 13.2239 9.00073 13.5 9.00073C13.7761 9.00073 14 9.22459 14 9.50073L14 10H18.0026V8C18.0026 6.89543 17.1071 6 16.0026 6H14V4.5C14 3.67157 13.3284 3 12.5 3H7.5C6.67157 3 6 3.67157 6 4.5ZM7.5 4H12.5C12.7761 4 13 4.22386 13 4.5V6H7V4.5C7 4.22386 7.22386 4 7.5 4ZM18.0026 11H14L14 11.5C14 11.7761 13.7762 12 13.5 12C13.2239 12 13 11.7761 13 11.5L13 11H7V11.5C7 11.7761 6.77614 12 6.5 12C6.22386 12 6 11.7761 6 11.5V11H2V15C2 16.1046 2.89543 17 4 17H16.0026C17.1071 17 18.0026 16.1046 18.0026 15V11Z" fill="#212121"/>
</svg>

<svg viewBox="0 0 20 20" fill="none" xmlns="http://www.w3.org/2000/svg" height="1em" width="1em">
  <path d="M6 4.5V6H4a2 2 0 0 0-2 2v2h4v-.5a.5.5 0 0 1 1 0v.5h6v-.5a.5.5 0 0 1 1 0v.5h4.003V8a2 2 0 0 0-2-2H14V4.5A1.5 1.5 0 0 0 12.5 3h-5A1.5 1.5 0 0 0 6 4.5ZM7.5 4h5a.5.5 0 0 1 .5.5V6H7V4.5a.5.5 0 0 1 .5-.5Zm10.503 7H14v.5a.5.5 0 1 1-1 0V11H7v.5a.5.5 0 0 1-1 0V11H2v4a2 2 0 0 0 2 2h12.003a2 2 0 0 0 2-2v-4Z" fill="#212121"/>
</svg>
